X:4236
L:1/8
M:6/8
K:Ddor
 A | =B^cd efd | =cAF{A} G2 F | GAc c2 A | ^c2 d efd | d=cA AFG | FDD D2 || c | _b2 A GFD | 
 D2 F A>GF | GAc c2 f | c>dA efd | c>AF A>GA | FDD D2 ||

